packages/foundations/assets/icons/functional/images/audio & video/fast_backward_30.svg

<svg xmlns="http://www.w3.org/2000/svg" width="32" height="32" fill="none"><path fill="#1A1C1F" fill-rule="evenodd" d="M17.04 4.888c-.233.121-3.482 3.37-3.604 3.603a1.02 1.02 0 0 0 0 .869c.138.296 3.371 3.513 3.642 3.625.522.215 1.131-.025 1.319-.522a1.4 1.4 0 0 0 0-.766c-.03-.083-.444-.543-.92-1.023l-.864-.872.827.03c1.301.046 2.278.293 3.493.884 3.344 1.625 5.337 5.068 5.04 8.706-.151 1.843-.728 3.331-1.884 4.86-.413.545-.482.667-.503.882-.036.377.062.662.305.881.338.306.739.363 1.133.162.377-.193 1.37-1.595 1.883-2.659.713-1.478 1.028-2.773 1.078-4.428.094-3.145-1.041-5.957-3.299-8.171a11.2 11.2 0 0 0-3.939-2.485c-.909-.336-2.336-.623-3.101-.625-.186 0-.431-.015-.543-.034l-.203-.033.72-.727c.396-.4.745-.794.777-.876a1.4 1.4 0 0 0 0-.766 1.1 1.1 0 0 0-.515-.53c-.227-.096-.642-.089-.842.015m-.533 10.978c-.935.174-1.659.581-2.241 1.259-.535.623-.787 1.273-.885 2.276-.086.874-.031 3.914.079 4.389.243 1.052.745 1.802 1.569 2.347.723.478 1.475.668 2.461.621.708-.034 1.218-.16 1.817-.452.572-.279 1.285-.996 1.564-1.575.423-.874.433-.955.433-3.478l.001-2.24-.149-.478c-.202-.648-.466-1.132-.845-1.545-.87-.95-2.366-1.392-3.804-1.124m-9.707.298c-.836.141-2.077.646-2.332.949a.988.988 0 0 0 .267 1.485c.345.202.626.184 1.238-.08.606-.262.996-.369 1.512-.416.793-.072 1.341.182 1.404.649q.129.953-2.169 1.61c-.977.28-1.228.509-1.226 1.117.002.46.342.871.789.955.115.022.47-.01.889-.078 1.665-.274 2.224-.045 2.221.907-.001.311-.027.42-.154.649-.391.703-1.532 1.094-3.731 1.28-.774.065-.886.087-1.073.211-.552.365-.568 1.209-.031 1.618l.202.153.804-.005c1.487-.009 2.992-.325 4.032-.848 1.357-.681 2.034-1.805 1.957-3.248-.046-.874-.364-1.561-.963-2.085l-.265-.232.161-.204q.561-.714.558-1.72c-.004-1.273-.838-2.277-2.175-2.619-.441-.113-1.389-.137-1.915-.048m11.008 1.652c.539.067.881.229 1.148.54.36.421.377.555.377 2.897 0 1.864-.01 2.111-.096 2.374-.155.471-.402.762-.82.968-.336.166-.404.18-.988.197-1.047.032-1.584-.205-1.892-.833l-.15-.306-.016-2.23c-.018-2.483-.006-2.598.325-3.032.223-.293.65-.514 1.104-.573.496-.064.517-.064 1.008-.002"/></svg>

<svg width="32" height="32" viewBox="0 0 32 32" fill="none" xmlns="http://www.w3.org/2000/svg"><path d="M17.040 4.888 C 16.807 5.009,13.558 8.258,13.436 8.491 C 13.307 8.740,13.306 9.084,13.436 9.360 C 13.574 9.656,16.807 12.873,17.078 12.985 C 17.600 13.200,18.209 12.960,18.397 12.463 C 18.469 12.271,18.469 11.890,18.397 11.697 C 18.367 11.614,17.953 11.154,17.477 10.674 L 16.613 9.802 17.440 9.832 C 18.741 9.878,19.718 10.125,20.933 10.716 C 24.277 12.341,26.270 15.784,25.973 19.422 C 25.822 21.265,25.245 22.753,24.089 24.282 C 23.676 24.827,23.607 24.949,23.586 25.164 C 23.550 25.541,23.648 25.826,23.891 26.045 C 24.229 26.351,24.630 26.408,25.024 26.207 C 25.401 26.014,26.394 24.612,26.907 23.548 C 27.620 22.070,27.935 20.775,27.985 19.120 C 28.079 15.975,26.944 13.163,24.686 10.949 C 23.581 9.865,22.229 9.012,20.747 8.464 C 19.838 8.128,18.411 7.841,17.646 7.839 C 17.460 7.839,17.215 7.824,17.103 7.805 L 16.900 7.772 17.620 7.045 C 18.016 6.645,18.365 6.251,18.397 6.169 C 18.469 5.977,18.469 5.596,18.397 5.403 C 18.319 5.199,18.089 4.962,17.882 4.873 C 17.655 4.777,17.240 4.784,17.040 4.888 M16.507 15.866 C 15.572 16.040,14.848 16.447,14.266 17.125 C 13.731 17.748,13.479 18.398,13.381 19.401 C 13.295 20.275,13.350 23.315,13.460 23.790 C 13.703 24.842,14.205 25.592,15.029 26.137 C 15.752 26.615,16.504 26.805,17.490 26.758 C 18.198 26.724,18.708 26.598,19.307 26.306 C 19.879 26.027,20.592 25.310,20.871 24.731 C 21.294 23.857,21.304 23.776,21.304 21.253 L 21.305 19.013 21.156 18.535 C 20.954 17.887,20.690 17.403,20.311 16.990 C 19.441 16.040,17.945 15.598,16.507 15.866 M6.800 16.164 C 5.964 16.305,4.723 16.810,4.468 17.113 C 4.077 17.577,4.205 18.288,4.735 18.598 C 5.080 18.800,5.361 18.782,5.973 18.518 C 6.579 18.256,6.969 18.149,7.485 18.102 C 8.278 18.030,8.826 18.284,8.889 18.751 C 8.974 19.387,8.253 19.923,6.720 20.361 C 5.743 20.641,5.492 20.870,5.494 21.478 C 5.496 21.938,5.836 22.349,6.283 22.433 C 6.398 22.455,6.753 22.423,7.172 22.355 C 8.837 22.081,9.396 22.310,9.393 23.262 C 9.392 23.573,9.366 23.682,9.239 23.911 C 8.848 24.614,7.707 25.005,5.508 25.191 C 4.734 25.256,4.622 25.278,4.435 25.402 C 3.883 25.767,3.867 26.611,4.404 27.020 L 4.606 27.173 5.410 27.168 C 6.897 27.159,8.402 26.843,9.442 26.320 C 10.799 25.639,11.476 24.515,11.399 23.072 C 11.353 22.198,11.035 21.511,10.436 20.987 L 10.171 20.755 10.332 20.551 C 10.706 20.075,10.892 19.502,10.890 18.831 C 10.886 17.558,10.052 16.554,8.715 16.212 C 8.274 16.099,7.326 16.075,6.800 16.164 M17.808 17.816 C 18.347 17.883,18.689 18.045,18.956 18.356 C 19.316 18.777,19.333 18.911,19.333 21.253 C 19.333 23.117,19.323 23.364,19.237 23.627 C 19.082 24.098,18.835 24.389,18.417 24.595 C 18.081 24.761,18.013 24.775,17.429 24.792 C 16.382 24.824,15.845 24.587,15.537 23.959 L 15.387 23.653 15.371 21.423 C 15.353 18.940,15.365 18.825,15.696 18.391 C 15.919 18.098,16.346 17.877,16.800 17.818 C 17.296 17.754,17.317 17.754,17.808 17.816 " fill="#1A1C1F" stroke="none" fill-rule="evenodd"></path></svg>
